X: 10580
T: Dot's
R: polka
M: 2/4
K: Amajor
E>A ce|cB BA|A,2 FE|CE FA|E>A ce|cB BA|A,2 FE|FA A2:|
c>B Af|ea fe|ce B>c|BA F2|c>B Af|ea fe|ce B>c|BA A2:|

